X: 20041
Q: "Furioso, piu e piu."
M: C
L: 1/8
K: Bb
[|\
f2dB AcFB | AcFB AcFB | GBAc Bdce | dgf=e f2ga |\
b2ge dfBe | dfBe dfBe | dgfe dbfd | gecA B2(FE) |]
_afdB gecd | ecAF fedc | dfBe dbfd | gecA B2Bd |]


